X:1
T:Donna leggiadra
T:Philippe Verdelot
T:Source : Publikation älterer praktischer und theoretischer Musik-Werke---R.Eitner--- Berlin---L.Liepmannssohn und M.Bahn---1874. First publication : Primo libro di madrigali a 4 voci---Venetia---A.Antico---1533. Editor : André Vierendeels (16/11/17). Notes : Original clefs : C3, C3, C3, F4 Original note values have been halved Editorial accidentals above the staff Text by Giovanni Brevio
T:Donna leggiadra
T:©
T:©
T:©
C:Philippe Verdelot
Z:©
%%score [ 1 [ 2 3 ] 4 ]
L:1/8
Q:1/4=120
M:2/2
K:C
V:1 treble nm="Alto" snm="A"
V:2 treble-8 nm="Tenor 1" snm="T 1"
V:3 treble-8 nm="Tenor 2" snm="T 2"
V:4 bass nm="Bass" snm="B"
V:1
 G8 | G4 A4 | G2 G2 G4 | E4 z2 G2 | G2 F2 E2 E2 | D2 B,2 C2 D2 | E2 DC B,4 | z2 D2 E4- | %8
w: Don-|na leg-|gia- dra'e bel-|la, che|con le vo- stri|lu- ci m'ac- cen-|de- * * ste|il di|
 E2 E2 F2 E2 | D4 D4 | z2 B,2 C2 B,2 | C2 C2 D4- | D2 D2 E2 G2- | GF/E/ F2 G4 | E4 F4 | F4 E2 E2 | %16
w: _ che la mia|stel- la|mi con- duss'|a ve- der|_ l'al- tier', ho-|* * * ne- ste|vo- stre|bel- lez- ze:|
 z2 C4 C2 | D2 E2 F4 | E4 z2 E2 | F2 G2 A4 | G8- | G8 | z2 E4 D2 | E2 D2 E4 | D8- | D8 | %26
w: poi che|la mia sor-|te m'a|fat- to vo-|stro,|_|non mi|da- te mor-|te,|_|
 z2 C4 B,2 | C2 B,2 C4- | C2 B,A, B,4 | C8- | C8- | C8 |] %32
w: non mi|da- te mor-||te.|_||
V:2
 e8 | d4 f4 | e2 e2 d4 | c4 z2 d2 | e2 d2 B2 c2 | B2 G2 A2 G2- | G2 F2 G4 | z2 B2 c4- | %8
w: Don-|na leg-|gia- dra'e bel-|la, che|con le vo- stri|lu- ci m'ac- cen-|* de- ste|il di|
 c2 c2 B2 c2 | A4 B4 | z2 G2 G2 G2 | G2 A2 B4- | B2 B2 c2 c2 | d4 B4 | c4 d4 | d4 c2 c2 | %16
w: _ che la mia|stel- la|mi con- duss'|a ve- der|_ l'al- tier', ho-|ne- ste|vo- stre|bel- lez- ze:|
 z2 A4 A2 | A2 B2 d4 | c4 z2 c2 | d2 e2 f4 | e2 e4 d2 | e2 d2 e4 | d2 c4 B2 | c2 B2 c4 | B2 B4 A2 | %25
w: poi che|la mia sor-|te m'a|fat- to vo-|stro, non mi|da- te mor-|te, non mi|da- te mor-|te, non mi|
 B2 A2 B4 | G8- | G8- | G8 | z2 A4 G2 | A2 G2 A4 | G8 |] %32
w: da- te mor-|te,|_||non mi|da- te mor-|te,|
V:3
 c8 | B4 d3 c | B2 c4 B2 | c4 z2 B2 | c2 A2 G2 G2 | G2 D2 E2 D2 | C4 D2 D2 | G6 G2 | A2 G2 F2 G2- | %9
w: Don-|na leg- gia-|dra'e bel- *|la, che|con le vo- stri|lu- ci m'ac- cen-|de- ste, il|di che|la mia stel- *|
"^#" G2 F2 G4 | z2 D2 E2 D2 | E2 E2 G4- | G2 G2 G2 G2 | A4 G4 | G4 _B4 | _B4 G2 G2 | z2 F4 F2 | %17
w: * * la|mi con- duss'|a ve- der|_ l'al- tier', ho-|ne- ste|vo- stre|bel- lez- ze:|poi che|
 F2 G2 A4 | A4 z2 A2 | A2 c2 c4 | c2 c4 B2 | c2 B2 c4 | G8- | G8 | z2 G4 F2 | G2 F2 G4 | C2 E4 D2 | %27
w: la mia sor-|te m'a|fat- to vo-|stro, non mi|da- te mor-|te,|_|non mi|da- te mor-|te, non mi|
 E2 D2 E4 | D8 | z2 F4 E2 | F2 E2 F4 | E8 |] %32
w: da- te mor-|te,|non mi|da- te mor-|te.|
V:4
 C,8 | G,4 D,4 | E,2 C,2 G,4 | C,4 z2 G,,2 | C,2 D,2 E,2 C,2 | G,,2 G,,2 C,2 B,,2 | A,,4 G,,4 | %7
w: Don-|na leg-|gia- dra'e bel-|la, che|con le vo- stri|lu- ci m'ac- cen-|de- ste,|
 z2 G,,2 C,4- | C,2 C,2 D,2 C,2 | D,4 G,,4 | z2 G,,2 C,2 G,,2 | C,2 A,,2 G,,4- | %12
w: il di|_ che la mia|stel- la|mi con- duss|a ve- der|
 G,,2 G,,2 C,2 E,2 | D,4 E,4 | C,4 _B,,4 | _B,,4 C,2 C,2 | z2 F,,4 F,,2 | F,2 E,2 D,4 | %18
w: _ l'al- tier', ho-|ne- ste|vo- stre|bel- lez- ze:|poi che|la mia sor-|
 A,,4 z2 A,,2 | D,2 C,2 F,4 | C,3 D, E,F, G,2 | C,2 G,2 C,4 | z2 C,4 G,,2 | C,2 G,,2 C,4 | %24
w: te m'a|fat- to vo-||* * stro,|non mi|da- te mor-|
 G,,3 A,, B,,C, D,2 | G,,2 D,2 G,,4 | z2 C,4 G,,2 | C,2 G,,2 C,4 | G,,8 | F,,3 G,, A,,B,, C,2 | %30
w: |* * te,|non mi|da- te mor-|||
 F,,2 C,2 F,,G,,A,,B,, | C,8 |] %32
w: |te.|

